X:3607
T:Anniversary Reel
P:Country Lasses
C:Trad. (Kerr's Coll.)
B:RSCDS 36-7
Z:Anselm Lingnau <anselm@strathspey.org>
R:Reel (4x32)
M:C
L:1/8
K:Bb
F|"Bb"B2df bfdf|"Eb"gabg "Bb"fdBd|"Eb"efge "Bb"defd|"C"cdcB "F"AFGA|
  "Bb"B2df bfdf|"Eb"gabg "Bb"fdBd|"Eb"efge "Bb"defd|"F7"cBcd "Bb"B2-B||
f|"Bb"b2ba bfdf|b2ba bfdf|"Eb"efge "Bb"defd|"C7"cdcB "F"Accf|
  "Gm"b2ba "Bb"bfdf|"Eb"b2ba "Bb"bfdf|"Cm"efge "Bb"defd|"F7"cBcd "Bb"B2-B|]
